svg/fluentui-system-icons/ic_fluent_conference_room_28_regular.svg

<svg width="28" height="28" viewBox="0 0 28 28" fill="none" xmlns="http://www.w3.org/2000/svg">
<path d="M11.894 2.0142L23.394 4.2642C23.746 4.33307 24 4.64155 24 5.00025V23.0002C24 23.3589 23.746 23.6674 23.394 23.7363L11.894 25.9863C11.4308 26.0769 11 25.7223 11 25.2502V2.75025C11 2.27824 11.4308 1.92357 11.894 2.0142ZM12.5 3.6612V24.3393L22.5 22.3828V5.61773L12.5 3.6612ZM10 4.50025V6.00025H5.5V22.0002H10V23.5002H4.75C4.3703 23.5002 4.05651 23.2181 4.00685 22.852L4 22.7502V5.25025C4 4.87055 4.28215 4.55675 4.64823 4.50709L4.75 4.50025H10ZM15 13.0002C15.5523 13.0002 16 13.448 16 14.0002C16 14.5525 15.5523 15.0002 15 15.0002C14.4477 15.0002 14 14.5525 14 14.0002C14 13.448 14.4477 13.0002 15 13.0002Z" fill="#212121"/>
</svg>

<svg xmlns="http://www.w3.org/2000/svg" width="28" height="28"><path d="m11.894 2.014 11.5 2.25A.75.75 0 0 1 24 5v18a.75.75 0 0 1-.606.736l-11.5 2.25A.75.75 0 0 1 11 25.25V2.75a.75.75 0 0 1 .894-.736Zm.606 1.647V24.34l10-1.956V5.618l-10-1.957Zm-2.5.84V6H5.5v16H10v1.5H4.75a.75.75 0 0 1-.743-.649L4 22.75V5.25a.75.75 0 0 1 .648-.743L4.75 4.5H10Zm5 8.5a1 1 0 1 1 0 2 1 1 0 0 1 0-2Z"/></svg>
